X: 31028
T: Paddy Canny's Toast
R: reel
M: 4/4
K: Gdorian
A2 cA eAcA|G2 BG DGBG|A2 cA eAcA|fgdB eBdB|
A2 cA eAcA|G2 BG DGBG|EAAG ABce|dBgB cdBc:|
A2 ab aecB|A2 af gafa|gddd GABd|gdef gedB|
A2 ab aecB|Aabc' abc'a|g3 b bgaf|gedB cABG:|

